assets/images/visa.svg

<svg height="48" viewBox="0 0 48 48" width="48" xmlns="http://www.w3.org/2000/svg"><path d="m45 35c0 2.210938-1.789062 4-4 4h-34c-2.210937 0-4-1.789062-4-4v-22c0-2.210937 1.789063-4 4-4h34c2.210938 0 4 1.789063 4 4z" fill="#1565c0"/><g fill="#fff"><path d="m15.1875 19-2.628906 7.832031s-.664063-3.3125-.730469-3.730468c-1.496094-3.410157-3.703125-3.21875-3.703125-3.21875l2.601563 10.117187v-.003906h3.160156l4.371094-10.996094z"/><path d="m17.6875 30h2.871094l1.738281-11h-2.90625z"/><path d="m38.007813 19h-3.019532l-4.710937 11h2.851562l.589844-1.570312h3.59375l.304688 1.570312h2.613281zm-3.496094 7.328125 1.5625-4.15625.820312 4.15625z"/><path d="m26.367188 22.207031c0-.605468.5-1.058593 1.929687-1.058593.925781 0 1.988281.675781 1.988281.675781l.46875-2.308594s-1.359375-.515625-2.691406-.515625c-3.019531 0-4.578125 1.441406-4.578125 3.269531 0 3.308594 3.980469 2.855469 3.980469 4.550782 0 .292968-.230469.964843-1.890625.964843s-2.757813-.609375-2.757813-.609375l-.496093 2.21875s1.066406.605469 3.117187.605469c2.058594 0 4.917969-1.539062 4.917969-3.753906 0-2.660156-3.988281-2.851563-3.988281-4.039063z"/></g><path d="m12.210938 24.945313-.964844-4.75s-.4375-1.027344-1.574219-1.027344-4.4375 0-4.4375 0 5.660156 1.671875 6.976563 5.777344z" fill="#ffc107"/></svg>

<svg xmlns="http://www.w3.org/2000/svg" width="42" height="30" viewBox="0 0 42 30"><g transform="translate(-3 -9)"><path d="M45,35a4,4,0,0,1-4,4H7a4,4,0,0,1-4-4V13A4,4,0,0,1,7,9H41a4,4,0,0,1,4,4Z" fill="#1565c0"/><path d="M15.188,19l-2.629,7.832s-.664-3.312-.73-3.73c-1.5-3.41-3.7-3.219-3.7-3.219L10.727,30v0h3.16l4.371-11Z" fill="#fff"/><path d="M17.688,30h2.871L22.3,19H19.391Z" fill="#fff"/><path d="M38.008,19h-3.02L30.277,30h2.852l.59-1.57h3.594l.3,1.57H40.23Zm-3.5,7.328,1.563-4.156.82,4.156Z" fill="#fff"/><path d="M26.367,22.207c0-.605.5-1.059,1.93-1.059a4.518,4.518,0,0,1,1.988.676l.469-2.309A8.768,8.768,0,0,0,28.063,19c-3.02,0-4.578,1.441-4.578,3.27,0,3.309,3.98,2.855,3.98,4.551,0,.293-.23.965-1.891.965a6.145,6.145,0,0,1-2.758-.609l-.5,2.219A6.768,6.768,0,0,0,25.438,30c2.059,0,4.918-1.539,4.918-3.754C30.355,23.586,26.367,23.395,26.367,22.207Z" fill="#fff"/><path d="M12.211,24.945l-.965-4.75a1.775,1.775,0,0,0-1.574-1.027H5.234s5.66,1.672,6.977,5.777Z" fill="#ffc107"/></g></svg>
